X: 43
T:Polca'r Cymro
T:The Welshman's Polka
M:2/4
L:1/8
Q:220
C:J. Gratian
S:Cadw Twmpath Collection
R:Polka
A:Wales
Z:brian_martin12345@yahoo.com
K:D
d(3A/B/A/ F(3A/B/A/|FA d/e/f|gc e>d|c/e/a aa|
d(3A/B/A/ F(3A/B/A/|FA d/e/f|gc e>c|dd"Fine"d2:||
(3c/e/c/A (3c/e/c/A|ff e3/4c/4A|(3^G/B/G/E (3G/B/G/E|(3^G/B/G/E G/B/e|
(3c/e/c/A (3c/e/c/A|ff e3/4c/4A|(3^G/B/G/E G/B/e|c/d/B/c/"D.C."A2||
